X: 22713
T: Lament For Prophet
R: waltz
M: 3/4
K: Gmajor
D2|B3 d B2|G4 F2|{GF}E3 F {EF}G2|D4 B,2|{B,}C3 D E2|{FE}D4 {C}B,2|{B,}A,6-|A,4 D2|
B3 d B2|G4 F2|{GF}E3 F {EF}G2|D4 B,2|{B,}C3 D E2|D C3 B,A,|[G,6D6]-|[G,4D4]D2|
B3 d B2|G4 F2|{GF}E3 F {EF}G2|D4 B,|{B,}C3 D E2|{FE}D4 B2|{B}A6-|A4 D2|
B3 d B2|G4 F2|{GF}E3 F {EF}G2|D4 B,|{B,}C3 D E2|D C3 B,A,|[G,6D6]-|[G,4D4] Bc|
{B}d4 g2|f4 fa|{a}g3 f e2|d4 B2|c3 d e2|d4 b|a6-|a4 Bc|
{B}d4 g2|f4 fa|{a}g3 f e2|d4 B2|c3 d e2|d c3 BA|{EF}G6-|G4 Bc|
{B}d4 g2|f4 fa|g4 b2|d4 B2|[A4e4][^c2a2]|[e4e4] f2|{Bc}d6-|d4 D2|
B3 d B2|G4 F2|{GF}E3 F {EF}G2|D4 B,|{B,}C3 D E2|D C3 B,A,|[G,6D6]-|[G,6D6]|

